docs/images/icons/tic-tok-white.svg

<svg width="24" height="24" fill="none" xmlns="http://www.w3.org/2000/svg"><path d="M3.66 0C1.65 0 0 1.65 0 3.66v16.67C0 22.34 1.65 24 3.66 24h16.67c2.01 0 3.67-1.66 3.67-3.67V3.66C24 1.65 22.34 0 20.33 0H3.66Zm0 2h16.67c.93 0 1.67.73 1.67 1.66v16.67c0 .93-.74 1.67-1.67 1.67H3.66C2.73 22 2 21.26 2 20.33V3.66C2 2.73 2.73 2 3.66 2Zm9.96 2.68c-.26.01-.5.12-.68.3-.17.18-.27.43-.28.68v9c0 1.49-1.18 2.67-2.66 2.67a2.65 2.65 0 0 1-2.67-2.67C7.33 13.18 8.51 12 10 12c.13 0 .26-.03.38-.08s.24-.12.33-.21c.1-.1.17-.21.22-.33.05-.12.08-.25.08-.38 0-.14-.03-.27-.08-.39s-.12-.23-.22-.33c-.09-.09-.21-.16-.33-.21A.83.83 0 0 0 10 10c-2.57 0-4.67 2.1-4.67 4.66 0 2.57 2.1 4.67 4.67 4.67 2.56 0 4.66-2.1 4.66-4.67V9.55c.85.66 1.86 1.11 3 1.11.13 0 .27-.02.39-.07s.23-.12.33-.22c.09-.09.17-.2.22-.32.05-.12.08-.26.08-.39s-.03-.26-.08-.38a.955.955 0 0 0-.22-.33c-.1-.09-.21-.17-.33-.22-.12-.05-.26-.07-.39-.07-1.67 0-3-1.33-3-3 0-.13-.03-.26-.08-.39-.06-.12-.13-.23-.23-.32s-.21-.16-.34-.21a.865.865 0 0 0-.39-.06Z" fill="#FFF"/><path d="M3.66 0C1.65 0 0 1.65 0 3.66v16.67C0 22.34 1.65 24 3.66 24h16.67c2.01 0 3.67-1.66 3.67-3.67V3.66C24 1.65 22.34 0 20.33 0H3.66ZM.09 20.33V3.66q0-.37.08-.72.07-.34.21-.66.12-.29.28-.54.21-.32.48-.6.28-.27.6-.48.25-.16.54-.28.32-.14.66-.21.35-.07.72-.07h16.67q.37 0 .72.07.34.07.66.21.29.12.54.28.32.21.6.48.27.28.48.6.16.25.28.54.14.32.21.66.08.35.08.72v16.67q0 .37-.08.72-.07.34-.21.66-.12.29-.28.54-.21.32-.48.6-.28.27-.6.48-.25.16-.54.28-.32.14-.66.21-.35.07-.72.07H3.66q-.37 0-.72-.07-.34-.07-.66-.21-.29-.12-.54-.28-.32-.21-.6-.48-.27-.28-.48-.6-.16-.25-.28-.54-.14-.32-.21-.66-.08-.35-.08-.72ZM20.78 1.95q-.22-.06-.45-.06H3.66q-.23 0-.45.06-.12.03-.24.08-.16.07-.31.17-.13.09-.25.21t-.21.25q-.1.15-.17.31-.05.12-.08.24-.05.22-.05.45v16.67q0 .23.05.45.03.12.08.24.07.16.17.31.09.13.21.25t.25.21q.15.1.31.17.12.05.24.08.22.06.45.06h16.67q.23 0 .45-.06.12-.03.24-.08.16-.07.31-.17.13-.09.25-.21t.21-.25q.1-.15.17-.31.05-.12.08-.24.05-.22.05-.45V3.66q0-.23-.05-.45-.03-.12-.08-.24-.07-.16-.17-.31-.09-.13-.21-.25t-.25-.21q-.15-.1-.31-.17-.12-.05-.24-.08ZM3.66 2h16.67c.93 0 1.67.73 1.67 1.66v16.67c0 .93-.74 1.67-1.67 1.67H3.66C2.73 22 2 21.26 2 20.33V3.66C2 2.73 2.73 2 3.66 2Zm11.1 7.63c.83.61 1.8 1.03 2.9 1.03.13 0 .27-.02.39-.07s.23-.12.33-.22c.09-.09.17-.2.22-.32.05-.12.08-.26.08-.39s-.03-.26-.08-.38a.955.955 0 0 0-.22-.33c-.1-.09-.21-.17-.33-.22-.12-.05-.26-.07-.39-.07-1.67 0-3-1.33-3-3 0-.13-.03-.26-.08-.39-.06-.12-.13-.23-.23-.32s-.21-.16-.34-.21a.865.865 0 0 0-.39-.06c-.26.01-.5.12-.68.3-.17.18-.27.43-.28.68v9c0 1.49-1.18 2.67-2.66 2.67a2.65 2.65 0 0 1-2.67-2.67C7.33 13.18 8.51 12 10 12c.13 0 .26-.03.38-.08s.24-.12.33-.21c.1-.1.17-.21.22-.33.05-.12.08-.25.08-.38 0-.14-.03-.27-.08-.39s-.12-.23-.22-.33c-.09-.09-.21-.16-.33-.21A.83.83 0 0 0 10 10c-2.57 0-4.67 2.1-4.67 4.66 0 2.57 2.1 4.67 4.67 4.67 2.56 0 4.66-2.1 4.66-4.67V9.55c.04.03.07.05.1.08Zm-1.93-4.3q.06-.15.19-.28.12-.13.27-.2.15-.07.33-.07.09-.01.18.01.09.01.18.04.08.03.16.08.07.05.14.11t.12.14q.05.07.09.15.04.1.05.19.02.08.02.16 0 .39.09.75.06.24.15.46.12.28.28.52.17.25.38.47.22.21.47.38.24.16.52.28.22.09.45.15.37.09.76.09.09 0 .18.02.09.01.17.05.09.03.16.08t.14.11q.06.06.11.14.05.07.09.15.03.09.05.17.02.09.02.18t-.02.18q-.02.09-.05.17-.04.08-.09.16-.05.07-.11.13-.07.07-.14.11-.07.05-.16.09-.07.03-.15.04-.1.02-.2.02-.24 0-.48-.03-1.27-.14-2.46-1.06l-.16-.12v5.31q0 .48-.1.94-.09.43-.26.83-.16.37-.37.71-.26.4-.61.75-.35.34-.75.61-.33.21-.7.37-.41.17-.83.26-.46.1-.94.1-.49 0-.95-.1-.42-.09-.83-.26-.37-.16-.7-.37-.4-.27-.75-.61-.35-.35-.61-.75-.21-.34-.37-.71-.17-.4-.26-.83-.1-.46-.1-.94 0-.48.1-.94.09-.42.26-.83.16-.37.37-.7.26-.41.61-.75.35-.35.75-.61.33-.22.7-.37.4-.17.82-.26.47-.1.96-.1.09-.01.17.01.09.02.17.05.09.03.16.08.08.05.14.11.07.07.11.14.05.07.09.16.03.08.05.17.02.08.02.18 0 .09-.02.17-.02.09-.05.17-.04.09-.09.16-.04.07-.11.14-.06.06-.14.11-.07.05-.16.08-.07.03-.15.05-.09.02-.19.01-.35 0-.68.09-.21.05-.41.13-.25.1-.46.25-.22.15-.42.34-.19.19-.33.41-.15.22-.26.47-.08.2-.13.41-.08.32-.08.67 0 .35.08.68.05.2.13.4.11.25.26.47.14.22.33.41.2.19.42.34.21.15.46.25.2.09.41.14.33.08.68.08.34 0 .67-.08.21-.05.41-.14.25-.1.46-.25.22-.15.42-.34.19-.19.33-.41.15-.22.26-.47.08-.2.13-.4.08-.33.08-.68v-9q0-.18.07-.33Z" fill="#3742F3" fill-rule="evenodd"/></svg>

<svg width="24.000000" height="24.000000" viewBox="0 0 24 24" fill="none" xmlns="http://www.w3.org/2000/svg" xmlns:xlink="http://www.w3.org/1999/xlink">
	<desc>
			Created with Pixso.
	</desc>
	<defs/>
	<path id="Vector" d="M3.66 0C1.65 0 0 1.65 0 3.66L0 20.33C0 22.34 1.65 24 3.66 24L20.33 24C22.34 24 24 22.34 24 20.33L24 3.66C24 1.65 22.34 0 20.33 0L3.66 0ZM3.66 2L20.33 2C21.26 2 22 2.73 22 3.66L22 20.33C22 21.26 21.26 22 20.33 22L3.66 22C2.73 22 2 21.26 2 20.33L2 3.66C2 2.73 2.73 2 3.66 2ZM13.62 4.68C13.36 4.69 13.12 4.8 12.94 4.98C12.77 5.16 12.67 5.41 12.66 5.66L12.66 14.66C12.66 16.15 11.48 17.33 10 17.33C8.51 17.33 7.33 16.15 7.33 14.66C7.33 13.18 8.51 12 10 12C10.13 12 10.26 11.97 10.38 11.92C10.5 11.87 10.62 11.8 10.71 11.71C10.81 11.61 10.88 11.5 10.93 11.38C10.98 11.26 11.01 11.13 11.01 11C11.01 10.86 10.98 10.73 10.93 10.61C10.88 10.49 10.81 10.38 10.71 10.28C10.62 10.19 10.5 10.12 10.38 10.07C10.26 10.02 10.13 9.99 10 10C7.43 10 5.33 12.1 5.33 14.66C5.33 17.23 7.43 19.33 10 19.33C12.56 19.33 14.66 17.23 14.66 14.66L14.66 9.55C15.51 10.21 16.52 10.66 17.66 10.66C17.79 10.66 17.93 10.64 18.05 10.59C18.17 10.54 18.28 10.47 18.38 10.37C18.47 10.28 18.55 10.17 18.6 10.05C18.65 9.93 18.68 9.79 18.68 9.66C18.68 9.53 18.65 9.4 18.6 9.28C18.55 9.15 18.47 9.04 18.38 8.95C18.28 8.86 18.17 8.78 18.05 8.73C17.93 8.68 17.79 8.66 17.66 8.66C15.99 8.66 14.66 7.33 14.66 5.66C14.66 5.53 14.63 5.4 14.58 5.27C14.52 5.15 14.45 5.04 14.35 4.95C14.25 4.86 14.14 4.79 14.01 4.74C13.89 4.69 13.75 4.67 13.62 4.68Z" fill="#FFFFFF" fill-opacity="1.000000" fill-rule="nonzero"/>
	<path id="Vector" d="M3.66 0C1.65 0 0 1.65 0 3.66L0 20.33C0 22.34 1.65 24 3.66 24L20.33 24C22.34 24 24 22.34 24 20.33L24 3.66C24 1.65 22.34 0 20.33 0L3.66 0ZM0.09 20.33L0.09 3.66Q0.09 3.29 0.17 2.94Q0.24 2.6 0.38 2.28Q0.5 1.99 0.66 1.74Q0.87 1.42 1.14 1.14Q1.42 0.87 1.74 0.66Q1.99 0.5 2.28 0.38Q2.6 0.24 2.94 0.17Q3.29 0.1 3.66 0.1L20.33 0.1Q20.7 0.1 21.05 0.17Q21.39 0.24 21.71 0.38Q22 0.5 22.25 0.66Q22.57 0.87 22.85 1.14Q23.12 1.42 23.33 1.74Q23.49 1.99 23.61 2.28Q23.75 2.6 23.82 2.94Q23.9 3.29 23.9 3.66L23.9 20.33Q23.9 20.7 23.82 21.05Q23.75 21.39 23.61 21.71Q23.49 22 23.33 22.25Q23.12 22.57 22.85 22.85Q22.57 23.12 22.25 23.33Q22 23.49 21.71 23.61Q21.39 23.75 21.05 23.82Q20.7 23.89 20.33 23.89L3.66 23.89Q3.29 23.89 2.94 23.82Q2.6 23.75 2.28 23.61Q1.99 23.49 1.74 23.33Q1.42 23.12 1.14 22.85Q0.87 22.57 0.66 22.25Q0.5 22 0.38 21.71Q0.24 21.39 0.17 21.05Q0.09 20.7 0.09 20.33ZM20.78 1.95Q20.56 1.89 20.33 1.89L3.66 1.89Q3.43 1.89 3.21 1.95Q3.09 1.98 2.97 2.03Q2.81 2.1 2.66 2.2Q2.53 2.29 2.41 2.41Q2.29 2.53 2.2 2.66Q2.1 2.81 2.03 2.97Q1.98 3.09 1.95 3.21Q1.9 3.43 1.9 3.66L1.9 20.33Q1.9 20.56 1.95 20.78Q1.98 20.9 2.03 21.02Q2.1 21.18 2.2 21.33Q2.29 21.46 2.41 21.58Q2.53 21.7 2.66 21.79Q2.81 21.89 2.97 21.96Q3.09 22.01 3.21 22.04Q3.43 22.1 3.66 22.1L20.33 22.1Q20.56 22.1 20.78 22.04Q20.9 22.01 21.02 21.96Q21.18 21.89 21.33 21.79Q21.46 21.7 21.58 21.58Q21.7 21.46 21.79 21.33Q21.89 21.18 21.96 21.02Q22.01 20.9 22.04 20.78Q22.09 20.56 22.09 20.33L22.09 3.66Q22.09 3.43 22.04 3.21Q22.01 3.09 21.96 2.97Q21.89 2.81 21.79 2.66Q21.7 2.53 21.58 2.41Q21.46 2.29 21.33 2.2Q21.18 2.1 21.02 2.03Q20.9 1.98 20.78 1.95ZM3.66 2L20.33 2C21.26 2 22 2.73 22 3.66L22 20.33C22 21.26 21.26 22 20.33 22L3.66 22C2.73 22 2 21.26 2 20.33L2 3.66C2 2.73 2.73 2 3.66 2ZM14.76 9.63C15.59 10.24 16.56 10.66 17.66 10.66C17.79 10.66 17.93 10.64 18.05 10.59C18.17 10.54 18.28 10.47 18.38 10.37C18.47 10.28 18.55 10.17 18.6 10.05C18.65 9.93 18.68 9.79 18.68 9.66C18.68 9.53 18.65 9.4 18.6 9.28C18.55 9.15 18.47 9.04 18.38 8.95C18.28 8.86 18.17 8.78 18.05 8.73C17.93 8.68 17.79 8.66 17.66 8.66C15.99 8.66 14.66 7.33 14.66 5.66C14.66 5.53 14.63 5.4 14.58 5.27C14.52 5.15 14.45 5.04 14.35 4.95C14.25 4.86 14.14 4.79 14.01 4.74C13.89 4.69 13.75 4.67 13.62 4.68C13.36 4.69 13.12 4.8 12.94 4.98C12.77 5.16 12.67 5.41 12.66 5.66L12.66 14.66C12.66 16.15 11.48 17.33 10 17.33C8.51 17.33 7.33 16.15 7.33 14.66C7.33 13.18 8.51 12 10 12C10.13 12 10.26 11.97 10.38 11.92C10.5 11.87 10.62 11.8 10.71 11.71C10.81 11.61 10.88 11.5 10.93 11.38C10.98 11.26 11.01 11.13 11.01 11C11.01 10.86 10.98 10.73 10.93 10.61C10.88 10.49 10.81 10.38 10.71 10.28C10.62 10.19 10.5 10.12 10.38 10.07C10.26 10.02 10.13 9.99 10 10C7.43 10 5.33 12.1 5.33 14.66C5.33 17.23 7.43 19.33 10 19.33C12.56 19.33 14.66 17.23 14.66 14.66L14.66 9.55C14.7 9.58 14.73 9.6 14.76 9.63ZM12.83 5.33Q12.89 5.18 13.02 5.05Q13.14 4.92 13.29 4.85Q13.44 4.78 13.62 4.78Q13.71 4.77 13.8 4.79Q13.89 4.8 13.98 4.83Q14.06 4.86 14.14 4.91Q14.21 4.96 14.28 5.02Q14.35 5.08 14.4 5.16Q14.45 5.23 14.49 5.31Q14.53 5.41 14.54 5.5Q14.56 5.58 14.56 5.66Q14.56 6.05 14.65 6.41Q14.71 6.65 14.8 6.87Q14.92 7.15 15.08 7.39Q15.25 7.64 15.46 7.86Q15.68 8.07 15.93 8.24Q16.17 8.4 16.45 8.52Q16.67 8.61 16.9 8.67Q17.27 8.76 17.66 8.76Q17.75 8.76 17.84 8.78Q17.93 8.79 18.01 8.83Q18.1 8.86 18.17 8.91Q18.24 8.96 18.31 9.02Q18.37 9.08 18.42 9.16Q18.47 9.23 18.51 9.31Q18.54 9.4 18.56 9.48Q18.58 9.57 18.58 9.66Q18.58 9.75 18.56 9.84Q18.54 9.93 18.51 10.01Q18.47 10.09 18.42 10.17Q18.37 10.24 18.31 10.3Q18.24 10.37 18.17 10.41Q18.1 10.46 18.01 10.5Q17.94 10.53 17.86 10.54Q17.76 10.56 17.66 10.56Q17.42 10.56 17.18 10.53Q15.91 10.39 14.72 9.47L14.56 9.35L14.56 14.66Q14.56 15.14 14.46 15.6Q14.37 16.03 14.2 16.43Q14.04 16.8 13.83 17.14Q13.57 17.54 13.22 17.89Q12.87 18.23 12.47 18.5Q12.14 18.71 11.77 18.87Q11.36 19.04 10.94 19.13Q10.48 19.23 10 19.23Q9.51 19.23 9.05 19.13Q8.63 19.04 8.22 18.87Q7.85 18.71 7.52 18.5Q7.12 18.23 6.77 17.89Q6.42 17.54 6.16 17.14Q5.95 16.8 5.79 16.43Q5.62 16.03 5.53 15.6Q5.43 15.14 5.43 14.66Q5.43 14.18 5.53 13.72Q5.62 13.3 5.79 12.89Q5.95 12.52 6.16 12.19Q6.42 11.78 6.77 11.44Q7.12 11.09 7.52 10.83Q7.85 10.61 8.22 10.46Q8.62 10.29 9.04 10.2Q9.51 10.1 10 10.1Q10.09 10.09 10.17 10.11Q10.26 10.13 10.34 10.16Q10.43 10.19 10.5 10.24Q10.58 10.29 10.64 10.35Q10.71 10.42 10.75 10.49Q10.8 10.56 10.84 10.65Q10.87 10.73 10.89 10.82Q10.91 10.9 10.91 11Q10.91 11.09 10.89 11.17Q10.87 11.26 10.84 11.34Q10.8 11.43 10.75 11.5Q10.71 11.57 10.64 11.64Q10.58 11.7 10.5 11.75Q10.43 11.8 10.34 11.83Q10.27 11.86 10.19 11.88Q10.1 11.9 10 11.89Q9.65 11.89 9.32 11.98Q9.11 12.03 8.91 12.11Q8.66 12.21 8.45 12.36Q8.23 12.51 8.03 12.7Q7.84 12.89 7.7 13.11Q7.55 13.33 7.44 13.58Q7.36 13.78 7.31 13.99Q7.23 14.31 7.23 14.66Q7.23 15.01 7.31 15.34Q7.36 15.54 7.44 15.74Q7.55 15.99 7.7 16.21Q7.84 16.43 8.03 16.62Q8.23 16.81 8.45 16.96Q8.66 17.11 8.91 17.21Q9.11 17.3 9.32 17.35Q9.65 17.43 10 17.43Q10.34 17.43 10.67 17.35Q10.88 17.3 11.08 17.21Q11.33 17.11 11.54 16.96Q11.76 16.81 11.96 16.62Q12.15 16.43 12.29 16.21Q12.44 15.99 12.55 15.74Q12.63 15.54 12.68 15.34Q12.76 15.01 12.76 14.66L12.76 5.66Q12.76 5.48 12.83 5.33Z" fill="#3742F3" fill-opacity="1.000000" fill-rule="evenodd"/>
</svg>
